!! 00000] TT[WS
!!!OTL: Liuxia yiyanyan liaogege
!!!ARE: Asia, China, Shanxi Hequ
!! Ethnic Group: Han
!! WII, 21 (2)
!!!SCT: J0426
!!!YEM: Copyright 1995, estate of Helmut Schaffrath.
**kern
*ICvox
*Ivox
*M2/4
*k[b-]
*F:
{8a
16f
16g
16a
8ff
16a
=1
16f
16g
16a
16g
16f
16d
8c
=2
8a
8cc
16g
8f
16d
=3
2g}
=4
{8a
16f
16g
16a
8ff
16a
=5
16f
16g
16a
16g
16f
16d
8c
=6
8.a
16cc
16g
8f
16d
=7
2c}
==
!!!AGN: Shange, Shanqu. Qingge
!!!ONB: ESAC (Essen Associative Code) Database: CHINA
!!!AMT: simple duple
!!!AIN: vox
!!!EED: Helmut Schaffrath
!!!EEV: 1.0
*-
